src/assets/icons/bed.svg

<svg width="20" height="17" viewBox="0 0 20 17" fill="none" xmlns="http://www.w3.org/2000/svg">
<path d="M4.04594 7.63661H17.6286V7.66023H19.3742V16.9702H15.8829V13.4554H4.04594V16.9702H0.554688V0.677734H4.04594V7.63661ZM5.89131 5.91461V3.58711H9.96444V5.91461H5.89131Z" fill="black"/>
</svg>

<svg xmlns="http://www.w3.org/2000/svg" width="20" height="17" fill="none"><path fill="#000" d="M4.046 7.637h13.583v.023h1.745v9.31h-3.491v-3.515H4.046v3.515H.555V.678h3.49zM5.89 5.915V3.587h4.073v2.328z"/></svg>
